poi/svg/2414.svg

<?xml version="1.0" encoding="UTF-8" standalone="no"?>
<svg
   xmlns:dc="http://purl.org/dc/elements/1.1/"
   xmlns:cc="http://creativecommons.org/ns#"
   xmlns:rdf="http://www.w3.org/1999/02/22-rdf-syntax-ns#"
   xmlns:svg="http://www.w3.org/2000/svg"
   xmlns="http://www.w3.org/2000/svg"
   xmlns:sodipodi="http://sodipodi.sourceforge.net/DTD/sodipodi-0.dtd"
   xmlns:inkscape="http://www.inkscape.org/namespaces/inkscape"
   inkscape:version="1.0 (4035a4fb49, 2020-05-01)"
   sodipodi:docname="2414.svg"
   id="svg20"
   version="1.2"
   viewBox="0 0 42.519639 42.519639"
   height="14.999999mm"
   width="14.999999mm">
  <metadata
     id="metadata24">
    <rdf:RDF>
      <cc:Work
         rdf:about="">
        <dc:format>image/svg+xml</dc:format>
        <dc:type
           rdf:resource="http://purl.org/dc/dcmitype/StillImage" />
        <dc:title>Qt SVG Document</dc:title>
      </cc:Work>
    </rdf:RDF>
  </metadata>
  <sodipodi:namedview
     inkscape:current-layer="svg20"
     inkscape:window-maximized="0"
     inkscape:window-y="0"
     inkscape:window-x="0"
     inkscape:cy="28.346482"
     inkscape:cx="28.346482"
     inkscape:zoom="5.8410537"
     showgrid="false"
     id="namedview22"
     inkscape:window-height="480"
     inkscape:window-width="1034"
     inkscape:pageshadow="2"
     inkscape:pageopacity="0"
     guidetolerance="10"
     gridtolerance="10"
     objecttolerance="10"
     borderopacity="1"
     bordercolor="#666666"
     pagecolor="#ffffff" />
  <title
     id="title2">Qt SVG Document</title>
  <desc
     id="desc4">Generated with Qt</desc>
  <defs
     id="defs6" />
  <g
     transform="translate(5.25984,5.25984)"
     id="g18"
     stroke-linejoin="bevel"
     stroke-linecap="square"
     fill-rule="evenodd"
     stroke-width="1"
     stroke="#000000"
     fill="none">
    <g
       id="g10"
       font-style="normal"
       font-weight="400"
       font-size="7.8px"
       font-family="'MS Shell Dlg 2'"
       stroke="none"
       fill-opacity="1"
       fill="#ec1d24">
      <path
         id="path8"
         d="M 37.2598,16 C 37.2598,27.7415 27.7415,37.2598 16,37.2598 4.25851,37.2598 -5.25984,27.7415 -5.25984,16 -5.25984,4.25851 4.25851,-5.25984 16,-5.25984 27.7415,-5.25984 37.2598,4.25851 37.2598,16"
         fill-rule="evenodd"
         vector-effect="non-scaling-stroke" />
    </g>
    <g
       id="g14"
       font-style="normal"
       font-weight="400"
       font-size="7.8px"
       font-family="'MS Shell Dlg 2'"
       transform="translate(15.4331,12.0315)"
       stroke="none"
       fill-opacity="0.94902"
       fill="#ffffff">
      <path
         id="path12"
         d="m -1.0166,2.72412 h -1.04981 v -9.61621 h 1.04981 v 9.61621 m -10.834,8.98628 c 0,-0.8818 0.056,-1.7041 0.168,-2.46699 0.112,-0.76286 0.3394,-1.42424 0.6824,-1.98413 0.3429,-0.5599 0.8293,-1.00432 1.45918,-1.33325 0.62989,-0.32894 1.46273,-0.49341 2.49854,-0.49341 h 1.36475 v 8.16748 h -1.19678 c -0.05599,-0.5319 -0.26245,-0.9798 -0.61939,-1.3438 -0.35693,-0.3639 -0.78035,-0.5459 -1.27026,-0.5459 -0.48991,0 -0.91333,0.182 -1.27024,0.5459 -0.357,0.364 -0.5634,0.8119 -0.6194,1.3438 h -1.1968 v -1.8897 m 4.80812,-5.54292 c -0.89583,0 -1.5922,0.12948 -2.08911,0.38843 -0.49691,0.25895 -0.87481,0.55989 -1.13381,0.90283 -0.2589,0.34294 -0.4164,0.69287 -0.4724,1.0498 -0.056,0.35694 -0.084,0.64039 -0.084,0.85035 h 3.77932 V 6.16748 m 8.73437,6.44582 c 0.39193,0 0.73837,0.1505 1.03931,0.4514 0.30095,0.3009 0.45142,0.6824 0.45142,1.1443 0,0.4619 -0.15047,0.8503 -0.45142,1.1653 -0.30094,0.3149 -0.64738,0.4724 -1.03931,0.4724 -0.40592,0 -0.759354,-0.1575 -1.060298,-0.4724 -0.300944,-0.315 -0.451416,-0.7034 -0.451416,-1.1653 0,-0.4619 0.150472,-0.8434 0.451416,-1.1443 0.300944,-0.3009 0.654378,-0.4514 1.060298,-0.4514 m -10.45605,0 c 0.40592,0 0.75936,0.1505 1.0603,0.4514 0.30095,0.3009 0.45142,0.6824 0.45142,1.1443 0,0.4619 -0.15047,0.8503 -0.45142,1.1653 -0.30094,0.3149 -0.65438,0.4724 -1.0603,0.4724 -0.40592,0 -0.75236,-0.1575 -1.03931,-0.4724 -0.28693,-0.315 -0.43043,-0.7034 -0.43043,-1.1653 0,-0.4619 0.1435,-0.8434 0.43043,-1.1443 0.28695,-0.3009 0.63339,-0.4514 1.03931,-0.4514 m 3.90527,-8.81838 h 10.792 V 12.8442 H 3.58154 C 3.49756,12.6903 3.36458,12.5573 3.18262,12.4453 3.04264,12.3333 2.85018,12.2354 2.60522,12.1514 c -0.24495,-0.084 -0.54939,-0.126 -0.91333,-0.126 -0.37793,0 -0.68937,0.042 -0.934322,0.126 -0.244954,0.084 -0.437418,0.1819 -0.577392,0.2939 -0.167969,0.112 -0.293946,0.245 -0.37793,0.3989 H -4.85889 V 3.79492 M 9.98535,-5.04443 v 3.25439 H 12.001 V 1.08643 H 9.98535 V 4.40381 H 12.001 V 15.0278 H 7.19287 V 14.083 H 9.98535 V 8.33008 H 7.19287 V 4.40381 H 8.1377 V 1.08643 H 5.84912 V 2.51416 H 3.95947 V 1.08643 H 1.69189 V 2.51416 H 0.180176 V -6.47217 H 12.001 v 1.42774 H 9.98535 m -6.02588,0 H 1.69189 v 3.25439 h 2.26758 v -3.25439 m 4.17823,0 H 5.84912 v 3.25439 H 8.1377 v -3.25439"
         fill-rule="evenodd"
         vector-effect="none" />
    </g>
    <g
       id="g16"
       font-style="normal"
       font-weight="400"
       font-size="7.8px"
       font-family="'MS Shell Dlg 2'"
       stroke="none"
       fill-opacity="1"
       fill="#ec1d24" />
  </g>
</svg>

<?xml version="1.0" encoding="UTF-8" standalone="no"?>
<svg width="11.2889mm" height="11.2889mm"
 viewBox="0 0 32 32"
 xmlns="http://www.w3.org/2000/svg" xmlns:xlink="http://www.w3.org/1999/xlink"  version="1.2" baseProfile="tiny">
<title>Qt SVG Document</title>
<desc>Generated with Qt</desc>
<defs>
</defs>
<g fill="none" stroke="black" stroke-width="1" fill-rule="evenodd" stroke-linecap="square" stroke-linejoin="bevel" >

<g fill="#ec1d24" fill-opacity="1" stroke="none" transform="matrix(1,0,0,1,0,0)"
font-family="MS Shell Dlg 2" font-size="7.8" font-weight="400" font-style="normal" 
>
<path vector-effect="non-scaling-stroke" fill-rule="evenodd" d="M37.2598,16 C37.2598,27.7415 27.7415,37.2598 16,37.2598 C4.25851,37.2598 -5.25984,27.7415 -5.25984,16 C-5.25984,4.25851 4.25851,-5.25984 16,-5.25984 C27.7415,-5.25984 37.2598,4.25851 37.2598,16 "/>
</g>

<g fill="#ffffff" fill-opacity="0.94902" stroke="none" transform="matrix(1,0,0,1,15.4331,12.0315)"
font-family="MS Shell Dlg 2" font-size="7.8" font-weight="400" font-style="normal" 
>
<path vector-effect="none" fill-rule="evenodd" d="M-1.0166,2.72412 L-2.06641,2.72412 L-2.06641,-6.89209 L-1.0166,-6.89209 L-1.0166,2.72412 M-11.8506,11.7104 C-11.8506,10.8286 -11.7946,10.0063 -11.6826,9.24341 C-11.5706,8.48055 -11.3432,7.81917 -11.0002,7.25928 C-10.6573,6.69938 -10.1709,6.25496 -9.54102,5.92603 C-8.91113,5.59709 -8.07829,5.43262 -7.04248,5.43262 L-5.67773,5.43262 L-5.67773,13.6001 L-6.87451,13.6001 C-6.9305,13.0682 -7.13696,12.6203 -7.4939,12.2563 C-7.85083,11.8924 -8.27425,11.7104 -8.76416,11.7104 C-9.25407,11.7104 -9.67749,11.8924 -10.0344,12.2563 C-10.3914,12.6203 -10.5978,13.0682 -10.6538,13.6001 L-11.8506,13.6001 L-11.8506,11.7104 M-7.04248,6.16748 C-7.93831,6.16748 -8.63468,6.29696 -9.13159,6.55591 C-9.6285,6.81486 -10.0064,7.1158 -10.2654,7.45874 C-10.5243,7.80168 -10.6818,8.15161 -10.7378,8.50854 C-10.7938,8.86548 -10.8218,9.14893 -10.8218,9.35889 L-7.04248,9.35889 L-7.04248,6.16748 M1.69189,12.6133 C2.08382,12.6133 2.43026,12.7638 2.7312,13.0647 C3.03215,13.3656 3.18262,13.7471 3.18262,14.209 C3.18262,14.6709 3.03215,15.0593 2.7312,15.3743 C2.43026,15.6892 2.08382,15.8467 1.69189,15.8467 C1.28597,15.8467 0.932536,15.6892 0.631592,15.3743 C0.330648,15.0593 0.180176,14.6709 0.180176,14.209 C0.180176,13.7471 0.330648,13.3656 0.631592,13.0647 C0.932536,12.7638 1.28597,12.6133 1.69189,12.6133 M-8.76416,12.6133 C-8.35824,12.6133 -8.0048,12.7638 -7.70386,13.0647 C-7.40291,13.3656 -7.25244,13.7471 -7.25244,14.209 C-7.25244,14.6709 -7.40291,15.0593 -7.70386,15.3743 C-8.0048,15.6892 -8.35824,15.8467 -8.76416,15.8467 C-9.17008,15.8467 -9.51652,15.6892 -9.80347,15.3743 C-10.0904,15.0593 -10.2339,14.6709 -10.2339,14.209 C-10.2339,13.7471 -10.0904,13.3656 -9.80347,13.0647 C-9.51652,12.7638 -9.17008,12.6133 -8.76416,12.6133 M-4.85889,3.79492 L5.93311,3.79492 L5.93311,12.8442 L3.58154,12.8442 C3.49756,12.6903 3.36458,12.5573 3.18262,12.4453 C3.04264,12.3333 2.85018,12.2354 2.60522,12.1514 C2.36027,12.0674 2.05583,12.0254 1.69189,12.0254 C1.31396,12.0254 1.00252,12.0674 0.757568,12.1514 C0.512614,12.2354 0.32015,12.3333 0.180176,12.4453 C0.012207,12.5573 -0.11377,12.6903 -0.197754,12.8442 L-4.85889,12.8442 L-4.85889,3.79492 M9.98535,-5.04443 L9.98535,-1.79004 L12.001,-1.79004 L12.001,1.08643 L9.98535,1.08643 L9.98535,4.40381 L12.001,4.40381 L12.001,15.0278 L7.19287,15.0278 L7.19287,14.083 L9.98535,14.083 L9.98535,8.33008 L7.19287,8.33008 L7.19287,4.40381 L8.1377,4.40381 L8.1377,1.08643 L5.84912,1.08643 L5.84912,2.51416 L3.95947,2.51416 L3.95947,1.08643 L1.69189,1.08643 L1.69189,2.51416 L0.180176,2.51416 L0.180176,-6.47217 L12.001,-6.47217 L12.001,-5.04443 L9.98535,-5.04443 M3.95947,-5.04443 L1.69189,-5.04443 L1.69189,-1.79004 L3.95947,-1.79004 L3.95947,-5.04443 M8.1377,-5.04443 L5.84912,-5.04443 L5.84912,-1.79004 L8.1377,-1.79004 L8.1377,-5.04443"/>
</g>

<g fill="#ec1d24" fill-opacity="1" stroke="none" transform="matrix(1,0,0,1,0,0)"
font-family="MS Shell Dlg 2" font-size="7.8" font-weight="400" font-style="normal" 
>
</g>
</g>
</svg>
